Numix/64/actions/chronometer.svg

<?xml version="1.0" encoding="UTF-8" standalone="no"?>
<svg
   xmlns:dc="http://purl.org/dc/elements/1.1/"
   xmlns:cc="http://creativecommons.org/ns#"
   xmlns:rdf="http://www.w3.org/1999/02/22-rdf-syntax-ns#"
   xmlns:svg="http://www.w3.org/2000/svg"
   xmlns="http://www.w3.org/2000/svg"
   xmlns:sodipodi="http://sodipodi.sourceforge.net/DTD/sodipodi-0.dtd"
   xmlns:inkscape="http://www.inkscape.org/namespaces/inkscape"
   width="64"
   height="64"
   viewBox="0 0 64 64"
   id="svg2"
   version="1.1"
   inkscape:version="0.91 r13725"
   sodipodi:docname="chronometer.svg">
  <metadata
     id="metadata14">
    <rdf:RDF>
      <cc:Work
         rdf:about="">
        <dc:format>image/svg+xml</dc:format>
        <dc:type
           rdf:resource="http://purl.org/dc/dcmitype/StillImage" />
        <dc:title></dc:title>
      </cc:Work>
    </rdf:RDF>
  </metadata>
  <defs
     id="defs12" />
  <sodipodi:namedview
     pagecolor="#ffffff"
     bordercolor="#666666"
     borderopacity="1"
     objecttolerance="10"
     gridtolerance="10"
     guidetolerance="10"
     inkscape:pageopacity="0"
     inkscape:pageshadow="2"
     inkscape:window-width="1366"
     inkscape:window-height="704"
     id="namedview10"
     showgrid="false"
     inkscape:zoom="1"
     inkscape:cx="22.345939"
     inkscape:cy="47.495167"
     inkscape:window-x="0"
     inkscape:window-y="27"
     inkscape:window-maximized="1"
     inkscape:current-layer="svg2">
    <inkscape:grid
       type="xygrid"
       id="grid4155" />
  </sodipodi:namedview>
  <g
     transform="matrix(2.8000002,0,0,2.8000002,-1.5999759,0.40000558)"
     id="g4">
    <path
       style="fill:#ffffff;fill-rule:evenodd"
       d="m 21.375,12.000374 a 9.375,9.3750406 0 0 1 -18.75,0 9.375,9.3750406 0 1 1 18.75,0 z"
       id="path6"
       inkscape:connector-curvature="0" />
    <path
       style="fill:#268bd2"
       d="M 11.984375,5.484375 C 11.433594,5.492188 10.992188,5.949219 11,6.5 l 0,5.5 c 0,0.234375 0.08203,0.460938 0.234375,0.640625 l 2.5,3 c 0.222656,0.300781 0.589844,0.449219 0.957031,0.394531 0.367188,-0.05859 0.671875,-0.3125 0.792969,-0.664062 0.121094,-0.351563 0.03516,-0.742188 -0.21875,-1.011719 L 13,11.640625 13,6.5 C 13.003906,6.230469 12.898438,5.96875 12.707031,5.777344 12.515625,5.585938 12.253906,5.480469 11.984375,5.484375 Z"
       id="path8"
       inkscape:connector-curvature="0" />
    <path
       style="fill:#aaaaaa"
       d="m 11.999991,1.9999963 c -5.5117189,10e-8 -9.9999998,4.4882811 -9.9999998,9.9999997 0,5.511719 4.4882808,10 9.9999998,10 5.511719,0 10,-4.488281 10,-10 0,-5.5117189 -4.488281,-9.9999997 -10,-9.9999997 z m 0,2.0000004 c 4.429688,-5e-7 8,3.5703114 8,8.0000003 0,4.429687 -3.570312,7.999999 -8,8 -4.4296879,-1e-6 -7.9999998,-3.570313 -7.9999998,-8.000001 0,-4.4296876 3.570312,-7.9999996 7.9999998,-7.9999993 z"
       id="path10"
       inkscape:connector-curvature="0" />
  </g>
  <rect
     style="opacity:1;fill:#aaaaaa;fill-opacity:1;stroke:none;stroke-width:3;stroke-linecap:round;stroke-linejoin:round;stroke-miterlimit:4;stroke-dasharray:none;stroke-opacity:1"
     id="rect4169"
     width="14"
     height="8"
     x="25"
     y="1"
     ry="2.5"
     rx="2.5" />
  <path
     style="opacity:1;fill:#aaaaaa;fill-opacity:1;stroke:none;stroke-width:3;stroke-linecap:round;stroke-linejoin:round;stroke-miterlimit:4;stroke-dasharray:none;stroke-opacity:1"
     d="m 5.1752122,12.786796 c -1.566948,1.566948 -1.566948,4.089904 0,5.656852 L 9.4178523,22.686292 20.73156,11.372584 16.48892,7.1299397 c -1.566948,-1.5669481 -4.089904,-1.5669481 -5.656856,0 z"
     id="rect4171"
     inkscape:connector-curvature="0"
     sodipodi:nodetypes="sccccss" />
  <path
     sodipodi:nodetypes="sccccss"
     inkscape:connector-curvature="0"
     id="path4185"
     d="m 58.808267,12.786796 c 1.566948,1.566948 1.566948,4.089904 0,5.656852 l -4.24264,4.242644 -11.313708,-11.313708 4.24264,-4.2426443 c 1.566948,-1.5669481 4.089904,-1.5669481 5.656856,0 z"
     style="opacity:1;fill:#aaaaaa;fill-opacity:1;stroke:none;stroke-width:3;stroke-linecap:round;stroke-linejoin:round;stroke-miterlimit:4;stroke-dasharray:none;stroke-opacity:1" />
</svg>

<svg xmlns="http://www.w3.org/2000/svg" viewBox="0 0 64 64">
 <g transform="matrix(2.8000002,0,0,2.8000002,-1.5999759,0.40000558)">
  <path d="m 21.375 12 a 9.375 9.375 0 0 1 -18.75 0 9.375 9.375 0 1 1 18.75 0 z" style="fill:#fff;fill-rule:evenodd"/>
  <path d="m 11.984 5.484 c -0.551 0.008 -0.992 0.465 -0.984 1.016 l 0 5.5 c 0 0.234 0.082 0.461 0.234 0.641 l 2.5 3 c 0.223 0.301 0.59 0.449 0.957 0.395 0.367 -0.059 0.672 -0.313 0.793 -0.664 0.121 -0.352 0.035 -0.742 -0.219 -1.012 l -2.266 -2.719 0 -5.141 c 0.004 -0.27 -0.102 -0.531 -0.293 -0.723 -0.191 -0.191 -0.453 -0.297 -0.723 -0.293" style="fill:#268bd2"/>
  <path d="m 12 2 c -5.512 0 -10 4.488 -10 10 0 5.512 4.488 10 10 10 5.512 0 10 -4.488 10 -10 0 -5.512 -4.488 -10 -10 -10 z m 0 2 c 4.43 0 8 3.57 8 8 0 4.43 -3.57 8 -8 8 -4.43 0 -8 -3.57 -8 -8 0 -4.43 3.57 -8 8 -8 z" style="fill:#aaa"/>
 </g>
 <rect width="14" height="8" x="25" y="1" rx="2.5" style="fill:#aaa;opacity:1;fill-opacity:1;stroke:none"/>
 <path d="m 5.175 12.787 c -1.567 1.567 -1.567 4.09 0 5.657 l 4.243 4.243 11.314 -11.314 -4.243 -4.243 c -1.567 -1.567 -4.09 -1.567 -5.657 0 z" style="fill:#aaa;opacity:1;fill-opacity:1;stroke:none"/>
 <path d="m 58.808 12.787 c 1.567 1.567 1.567 4.09 0 5.657 l -4.243 4.243 -11.314 -11.314 4.243 -4.243 c 1.567 -1.567 4.09 -1.567 5.657 0 z" style="fill:#aaa;opacity:1;fill-opacity:1;stroke:none"/>
</svg>
